X:1
T:Title
%%score 1 { 2 | 3 }
L:1/8
M:3/2
K:A
V:1 treble nm="Grand Piano, Soprano"
V:2 bass nm="Choir Pad, Crawford (Emerson), 87.87.87"
V:3 bass 
V:1
 [CA]2 [CE]2 [DF]4 [CE]4 | [EA]2 [EA]2 [EB]4 [EB]4 | [Ec]2 [Ee]2 [Fd]4 [Ec]4 | [Ec]2 [DB]2 [CA]8 | %4
w: By~Luther~Orlando~Emerson,~1883 * * *||||
 [EB]2 [EB]2 [EB]4 [EG]4 | [EA]2 [EB]2 [Ec]3 [DB] [CB]4 | [EB]2 [Ec]2 [EB]4 [EG]4 | %7
w: |||
 [FA]2 [^DF]2 E8 | [CA]2 [CE]2 [DF]4 [CE]4 | [EA]2 [EA]2 [EB]4 [EB]4 | [Ec]2 [Ee]2 [Fd]4 [Ec]4 | %11
w: ||||
 [Ec]2 [DB]2 [CA]8 |] %12
w: |
V:2
 A,2 A,2 A,4 A,4 | A,2 A,2 G,4 G,4 | A,2 A,2 A,4 A,4 | A,2 G,2 A,8 | G,2 G,2 G,4 B,4 | %5
 C2 G,2 A,4 A,4 | G,2 A,2 G,4 B,4 | C2 B,2 G,8 | A,2 A,2 A,4 A,4 | A,2 A,2 G,4 G,4 | %10
 A,2 A,2 A,4 A,4 | A,2 G,2 A,8 |] %12
V:3
 A,,2 A,,2 A,,4 A,,4 | C,2 C,2 E,4 E,4 | z2 C,2 D,4 A,,4 | E,2 E,2 A,,8 | E,2 E,2 E,4 E,4 | %5
 E,2 E,2 A,,4 A,,4 | E,2 E,2 E,4 E,4 | A,,2 B,,2 E,8 | A,,2 A,,2 A,,4 A,,4 | C,2 C,2 E,4 E,4 | %10
 z2 C,2 D,4 A,,4 | E,2 E,2 A,,8 |] %12

